X:1
T:Title
%%score { ( 1 4 ) | ( 2 3 ) }
L:1/8
M:4/4
K:Ab
V:1 treble nm="Grand Piano"
V:4 treble 
V:2 bass 
V:3 bass 
V:1
 z4 z2[Q:1/4=100] [CE]>[CA] | [CEc]2 [=D_c]>[Fd] [E=c]2 [CA][_DF] | %2
 [CE]2 [F,DF]>[DG] [A,CA]2 [B,G]>[CA] | [B,DB]2 [DG]>E [EGe]3 [Fd] | [CEc]6 [CE]>[CA] | %5
 [CEc]2 [=D_c]>[Fd] [E=c]2 [CA][_DF] | [E,CE]2 [E,DF]>[K:treble][DG] [A,CA]2 [B,G]>[CA] | %7
 [B,DB]2 [Ec]>[Fd] [CEc]2 [B,DB]2 |[M:3/4] [A,CA]6 |[M:1/4] [B,DG]>[A,CA] | %10
[M:4/4] [DB]2 [Fd]>[Fd] c2 B2 | A4 z4 | F2 =EF [=DG]2 [DA]2 | [DB]6 [A,C]>[B,D] | %14
 [CE]2 [DF]>[CE] [CA]2 [DG][EA] | B2 G>E [Ae]2 A[AB] | [Ac]2 E>d c2 B2 |[M:3/4] [CA]6 |] %18
V:2
 z4 z2 E,>A, | z2 _C>D =C2 A,F, | E,2 z z/ G,/ z2 G,>A, | z2 G,>E, E,,2 z D | A,,6 E,>A, | %5
 z2 _C>D =C2 A,F, | A,,2 z z/ G,/ z2 G,>A, | z2 C>C E,,2 E,2 |[M:3/4] A,,6 |[M:1/4] E,>E, | %10
[M:4/4] [E,G,]2 [E,G,]>[E,G,] [E,A,E]2 [E,D]2 | E,4 z4 | %12
 [D,A,D]2 [D,G,D][D,A,D] [B,,B,]2 [B,,F,]2 | [E,G,]6 [A,,E,]>[A,,E,] | %14
 [A,,A,]2 [A,,A,]>[A,,A,] [A,,E,]2 [B,,E,][C,A,] | [E,G,E]2 [E,DE]>[D,G,] [C,A,]2 [F,C][F,=D] | %16
 [E,E]2 [E,C]>[E,B,E] [E,A,E]2 [E,G,D]2 |[M:3/4] [A,,E,A,]6 |] %18
V:3
 x8 | A,,8- | A,,2 E,2 A,,4 | E,4 z2 E,2 | x8 | A,,8 | z2 C,2 A,,4 | E,4 z4 |[M:3/4] x6 | %9
[M:1/4] x2 |[M:4/4] x8 | A,,6 [A,,A,]>[C,A,] | x8 | x8 | x8 | x8 | x8 |[M:3/4] x6 |] %18
V:4
 x8 | x8 | x8 | x8 | x8 | x8 | x7/2[K:treble] x9/2 | x8 |[M:3/4] x6 |[M:1/4] x2 |[M:4/4] x8 | %11
 C4- [A,CE]2 [CA]>[EG] | x8 | x8 | x8 | x8 | x8 |[M:3/4] x6 |] %18

